lib/logo_updates/nrk-logo-nrk-p13-on-dark.svg

<svg width="218" height="48" viewBox="0 0 218 48" fill="none" xmlns="http://www.w3.org/2000/svg">
<path d="M0 45V3.00381H13.7802V45H0ZM32.5283 9.68773L40.4532 45H25.3721L15.9092 3.00381H24.3676C26.3072 2.97864 28.1892 3.66237 29.6607 4.92636C31.1347 6.13734 32.1473 7.81844 32.5283 9.68773ZM42.5233 45V3.00381H56.3035V45H42.5233ZM66.7116 18.9743C65.2267 18.9888 63.7656 18.6003 62.4839 17.8504C61.2193 17.1194 60.1688 16.0689 59.438 14.8041C58.6872 13.5222 58.2986 12.0607 58.3134 10.5751C58.2964 9.09861 58.6853 7.64583 59.438 6.3755C60.1766 5.12447 61.2259 4.08533 62.4839 3.35882C63.766 2.60976 65.2269 2.2213 66.7116 2.23484C68.1877 2.21895 69.6399 2.60775 70.9108 3.35882C72.1562 4.09169 73.1943 5.12996 73.9271 6.3755C74.6789 7.64618 75.0677 9.09873 75.0517 10.5751C75.0655 12.0605 74.6769 13.5218 73.9271 14.8041C73.202 16.0633 72.1627 17.113 70.9108 17.8504C69.6398 18.6029 68.1866 18.9918 66.7097 18.9743H66.7116ZM77.1807 45V3.00381H90.9621V45H77.1807ZM108.408 25.9538C108.447 25.9946 108.742 26.4776 109.295 27.403C109.848 28.3283 110.567 29.5114 111.454 30.952C112.341 32.392 113.277 33.9199 114.262 35.536C115.247 37.1521 116.174 38.6803 117.043 40.1202C117.908 41.5602 118.894 43.1867 120 45H104.859C103.912 43.4621 103.055 42.0721 102.286 40.83C101.517 39.5878 100.7 38.2471 99.8334 36.8077C98.9653 35.3698 98.1071 33.9699 97.2587 32.6081C96.4103 31.2464 95.6813 30.0536 95.0714 29.0297C94.459 28.0051 94.0348 27.3149 93.7989 26.9594C93.2139 26.0771 92.8677 25.058 92.7944 24.0019C92.853 22.9883 93.1791 22.0084 93.7397 21.1619C93.9762 20.7676 94.41 20.0675 95.0409 19.062C95.6717 18.0564 96.411 16.8637 97.2587 15.4835C98.1064 14.1034 98.9647 12.6936 99.8334 11.2543C100.702 9.81501 101.519 8.46432 102.286 7.20247C103.056 5.94193 103.914 4.54205 104.859 3.00285H120L108.289 22.1082C107.926 22.6755 107.722 23.3292 107.697 24.0019C107.736 24.7081 107.983 25.3871 108.406 25.9538H108.408Z" fill="white"/>
<path d="M164.507 8.43963C163.78 7.31826 162.846 6.34489 161.757 5.57117C160.542 4.72031 159.192 4.08043 157.765 3.67855C156.032 3.2002 154.239 2.97154 152.442 2.99943H136V44.9909H142.21V29.9095H152.915C155.331 29.9469 157.716 29.3555 159.835 28.1933C161.865 27.069 163.552 25.4134 164.714 23.4038C165.959 21.1857 166.583 18.6723 166.518 16.1292C166.523 14.755 166.364 13.3849 166.045 12.0483C165.738 10.7679 165.218 9.548 164.507 8.43963ZM159.007 21.186C158.211 22.4327 157.041 23.3954 155.665 23.936C153.994 24.5682 152.216 24.8696 150.431 24.8232H142.21V8.14591H151.259C152.987 8.08041 154.708 8.41434 156.286 9.12176C157.542 9.72851 158.569 10.7241 159.214 11.9606C159.897 13.3476 160.232 14.8802 160.189 16.4258C160.257 18.0929 159.847 19.7446 159.007 21.186Z" fill="#FFA90A"/>
<path d="M179.144 4.38925C178.296 4.84268 177.468 5.26658 176.661 5.66087C175.853 6.05515 175.035 6.44939 174.205 6.84368C173.378 7.23796 172.53 7.59278 171.662 7.90821C170.794 8.22364 169.868 8.53915 168.884 8.85457L170.184 13.8817C171.367 13.5268 172.441 13.1719 173.407 12.817C174.353 12.4702 175.281 12.0755 176.187 11.6342C177.075 11.2005 177.962 10.7274 178.848 10.2149L178.879 10.1971V44.9929H185.029V3.00129H181.836C180.889 3.4718 179.992 3.93451 179.144 4.38925Z" fill="#FFA90A"/>
<path d="M217.261 29.2579C216.851 28.0772 216.208 26.991 215.369 26.0642C214.497 25.1272 213.44 24.3822 212.264 23.8769C210.917 23.2968 209.492 22.9182 208.035 22.7532V22.5748C209.804 22.0127 211.45 21.1196 212.885 19.9429C214.165 18.8929 215.221 17.596 215.99 16.1292C216.716 14.7215 217.091 13.1592 217.084 11.5752C217.11 10.2304 216.806 8.8997 216.197 7.70035C215.573 6.54093 214.681 5.54752 213.594 4.80324C212.331 3.94341 210.916 3.33133 209.425 2.99943C207.592 2.58365 205.716 2.38516 203.836 2.40802C202.599 2.41213 201.364 2.50138 200.14 2.67515C198.872 2.84893 197.618 3.1058 196.384 3.44403C195.197 3.76527 194.047 4.21131 192.954 4.77473L193.782 9.44701C194.648 9.09215 195.486 8.78622 196.295 8.52928C197.104 8.27233 197.883 8.06533 198.631 7.90827C199.38 7.75187 200.109 7.6339 200.82 7.55439C201.507 7.4768 202.198 7.43731 202.89 7.43611C204.141 7.41572 205.39 7.53442 206.616 7.78999C207.504 7.96892 208.348 8.32097 209.1 8.826C209.712 9.25792 210.194 9.85129 210.49 10.5402C210.802 11.3199 210.953 12.1549 210.933 12.9946C210.95 14.1485 210.675 15.288 210.135 16.3075C209.585 17.3124 208.817 18.1814 207.887 18.8508C206.839 19.5998 205.668 20.1601 204.427 20.5067C202.985 20.9148 201.491 21.1139 199.992 21.0981H198.868L198.158 25.7123H200.051C201.796 25.6882 203.539 25.8368 205.255 26.1559C206.54 26.3857 207.772 26.8466 208.893 27.5162C209.809 28.0743 210.555 28.8718 211.051 29.8228C211.546 30.8448 211.789 31.9701 211.761 33.1051C211.791 34.2532 211.569 35.3939 211.11 36.4467C210.671 37.3802 209.986 38.1769 209.129 38.7523C208.105 39.4205 206.96 39.8826 205.758 40.1126C204.172 40.4305 202.556 40.5792 200.938 40.5563C200.346 40.5563 199.764 40.5374 199.193 40.498C198.622 40.4586 198.019 40.3994 197.389 40.3196C196.76 40.2397 196.097 40.1343 195.408 39.9953C194.719 39.8563 193.959 39.6907 193.131 39.4916L192.362 44.5187C193.229 44.6764 194.067 44.8244 194.876 44.9624C195.685 45.1004 196.483 45.2186 197.271 45.3172C198.06 45.4145 198.828 45.4831 199.578 45.5232C200.327 45.5633 201.056 45.5834 201.766 45.5834C203.651 45.5982 205.532 45.4295 207.384 45.0797C208.958 44.7866 210.482 44.269 211.909 43.5429C213.154 42.91 214.276 42.0587 215.221 41.0294C216.11 40.0401 216.793 38.8841 217.232 37.6286C217.701 36.2484 217.931 34.7983 217.912 33.3407C217.93 31.9526 217.71 30.5717 217.261 29.2579Z" fill="#FFA90A"/>
</svg>

<svg xmlns="http://www.w3.org/2000/svg" viewBox="0 0 218 48"><path fill="#fff" d="M0 45V3.004h13.78V45H0ZM32.528 9.688 40.453 45h-15.08L15.908 3.004h8.459a7.965 7.965 0 0 1 5.293 1.922 8.31 8.31 0 0 1 2.867 4.762ZM42.523 45V3.004h13.78V45h-13.78Zm24.189-26.026a8.213 8.213 0 0 1-4.228-1.124 8.336 8.336 0 0 1-3.046-3.046 8.206 8.206 0 0 1-1.125-4.229 8.056 8.056 0 0 1 1.125-4.2 8.437 8.437 0 0 1 3.046-3.016 8.232 8.232 0 0 1 4.228-1.124 8.083 8.083 0 0 1 4.199 1.124 8.503 8.503 0 0 1 3.016 3.016 8.075 8.075 0 0 1 1.125 4.2 8.226 8.226 0 0 1-1.125 4.23 8.4 8.4 0 0 1-3.016 3.045 8.059 8.059 0 0 1-4.201 1.124h.002ZM77.18 45V3.004h13.781V45H77.181Zm31.227-19.046c.039.04.334.524.887 1.449.553.925 1.272 2.108 2.159 3.549a1143.28 1143.28 0 0 1 5.589 9.168A854.89 854.89 0 0 0 120 45h-15.141c-.947-1.538-1.804-2.928-2.573-4.17a382.214 382.214 0 0 1-2.453-4.022 351.934 351.934 0 0 0-2.574-4.2 213.445 213.445 0 0 1-2.188-3.578 62.753 62.753 0 0 0-1.272-2.07 6.119 6.119 0 0 1-1.005-2.958 5.744 5.744 0 0 1 .946-2.84c.236-.394.67-1.095 1.3-2.1.632-1.006 1.371-2.198 2.219-3.579a636.03 636.03 0 0 0 2.574-4.229c.869-1.439 1.686-2.79 2.453-4.052.77-1.26 1.628-2.66 2.573-4.2H120l-11.711 19.106a3.773 3.773 0 0 0-.592 1.894c.039.706.286 1.385.709 1.952h.002Z"/><path fill="#FFA90A" d="M164.507 8.44a10.581 10.581 0 0 0-2.75-2.869 13.196 13.196 0 0 0-3.992-1.892 18.906 18.906 0 0 0-5.323-.68H136v41.992h6.21V29.91h10.705a13.942 13.942 0 0 0 6.92-1.717 12.8 12.8 0 0 0 4.879-4.79 14.126 14.126 0 0 0 1.804-7.274 17.31 17.31 0 0 0-.473-4.08c-.307-1.281-.827-2.501-1.538-3.61Zm-5.5 12.746a7.004 7.004 0 0 1-3.342 2.75 13.78 13.78 0 0 1-5.234.887h-8.221V8.146h9.049a11.25 11.25 0 0 1 5.027.976 6.483 6.483 0 0 1 2.928 2.839 9.51 9.51 0 0 1 .975 4.465 8.746 8.746 0 0 1-1.182 4.76ZM179.144 4.39c-.848.453-1.676.877-2.483 1.27-.808.395-1.626.79-2.456 1.184a28.62 28.62 0 0 1-2.543 1.064c-.868.316-1.794.631-2.778.947l1.3 5.027a56.317 56.317 0 0 0 3.223-1.065 29.668 29.668 0 0 0 2.78-1.183 43.032 43.032 0 0 0 2.661-1.42l.031-.017v34.796h6.15V3h-3.193c-.947.47-1.844.934-2.692 1.388ZM217.261 29.258a9.307 9.307 0 0 0-1.892-3.194 9.206 9.206 0 0 0-3.105-2.187 14.943 14.943 0 0 0-4.229-1.124v-.178a14.641 14.641 0 0 0 4.85-2.632 12.35 12.35 0 0 0 3.105-3.814 9.84 9.84 0 0 0 1.094-4.554 8.207 8.207 0 0 0-.887-3.875 8.248 8.248 0 0 0-2.603-2.897A12.068 12.068 0 0 0 209.425 3a23.95 23.95 0 0 0-5.589-.591 26.932 26.932 0 0 0-3.696.267c-1.268.174-2.522.43-3.756.769a17.417 17.417 0 0 0-3.43 1.33l.828 4.673c.866-.355 1.704-.66 2.513-.918a24.082 24.082 0 0 1 2.336-.62 23.474 23.474 0 0 1 2.189-.355 18.733 18.733 0 0 1 2.07-.118c1.251-.02 2.5.098 3.726.354a6.9 6.9 0 0 1 2.484 1.036 4.062 4.062 0 0 1 1.39 1.714c.312.78.463 1.615.443 2.455a6.863 6.863 0 0 1-.798 3.313 7.672 7.672 0 0 1-2.248 2.543 11.073 11.073 0 0 1-3.46 1.656 15.682 15.682 0 0 1-4.435.591h-1.124l-.71 4.614h1.893a26.465 26.465 0 0 1 5.204.444c1.285.23 2.517.69 3.638 1.36a5.89 5.89 0 0 1 2.158 2.307 7.126 7.126 0 0 1 .71 3.282 7.848 7.848 0 0 1-.651 3.342 5.7 5.7 0 0 1-1.981 2.305 9.401 9.401 0 0 1-3.371 1.36 22.88 22.88 0 0 1-4.82.444c-.592 0-1.174-.019-1.745-.058a31.83 31.83 0 0 1-1.804-.178 27.611 27.611 0 0 1-1.981-.325 63.116 63.116 0 0 1-2.277-.503l-.769 5.027c.867.157 1.705.305 2.514.443.809.138 1.607.257 2.395.355.789.097 1.557.166 2.307.206.749.04 1.478.06 2.188.06a29.037 29.037 0 0 0 5.618-.503 16.733 16.733 0 0 0 4.525-1.537 11.685 11.685 0 0 0 3.312-2.514 10.05 10.05 0 0 0 2.011-3.4c.469-1.38.699-2.83.68-4.288a12.138 12.138 0 0 0-.651-4.083Z"/></svg>
